components/Common/Svg/svgs/java.svg

<svg
  width="62"
  height="113"
  viewBox="0 0 62 113"
  fill="none"
  xmlns="http://www.w3.org/2000/svg"
>
  <path
    d="M58.2503 88.5396H57.8359V88.3054H58.9514V88.5396H58.5399V89.7082H58.2503V88.5396ZM60.4752 88.6006H60.4687L60.0582 89.7084H59.8703L59.4624 88.6006H59.4573V89.7084H59.1844V88.3056H59.586L59.9642 89.299L60.3412 88.3056H60.7414V89.7084H60.475V88.6006H60.4752Z"
    fill="#6A6A6A"
  ></path>
  <path
    d="M21.1616 59.8539C21.1616 59.8539 18.2787 61.5478 23.2132 62.121C29.1912 62.8101 32.2465 62.7113 38.8343 61.4515C38.8343 61.4515 40.5663 62.5488 42.9851 63.4992C28.217 69.8946 9.562 63.1288 21.1616 59.8539Z"
    fill="#9B9B9B"
  ></path>
  <path
    d="M19.3532 51.5083C19.3532 51.5083 16.1198 53.9267 21.0579 54.4428C27.4438 55.1085 32.4869 55.1629 41.2134 53.465C41.2134 53.465 42.4203 54.7015 44.3183 55.3776C26.4627 60.6533 6.57492 55.7937 19.3532 51.5083Z"
    fill="#9B9B9B"
  ></path>
  <path
    d="M34.5681 37.3514C38.2069 41.5846 33.612 45.3939 33.612 45.3939C33.612 45.3939 42.8517 40.5744 38.6083 34.5392C34.6451 28.9109 31.6059 26.1145 48.059 16.4727C48.059 16.4727 22.2331 22.9901 34.5681 37.3514Z"
    fill="#6A6A6A"
  ></path>
  <path
    d="M54.1017 66.0267C54.1017 66.0267 56.2351 67.8029 51.7522 69.177C43.2278 71.7862 16.273 72.5742 8.785 69.2809C6.09328 68.0977 11.141 66.4557 12.7289 66.1112C14.3848 65.7483 15.3311 65.8159 15.3311 65.8159C12.3376 63.6852 -4.01747 69.9998 7.02353 71.8082C37.1339 76.7422 61.9119 69.5864 54.1017 66.0267Z"
    fill="#9B9B9B"
  ></path>
  <path
    d="M22.5437 42.8613C22.5437 42.8613 8.8327 46.1519 17.6883 47.3468C21.4274 47.8526 28.8812 47.7382 35.8242 47.1504C41.4984 46.6667 47.196 45.6384 47.196 45.6384C47.196 45.6384 45.1952 46.5042 43.7477 47.5029C29.8244 51.203 2.92729 49.4817 10.6706 45.697C17.2192 42.4985 22.5437 42.8613 22.5437 42.8613Z"
    fill="#9B9B9B"
  ></path>
  <path
    d="M47.1438 56.7529C61.2975 49.3214 54.7534 42.1798 50.1857 43.142C49.0662 43.3774 48.567 43.5814 48.567 43.5814C48.567 43.5814 48.9826 42.9236 49.7764 42.6388C58.8127 39.4288 65.7623 52.1064 46.8594 57.1275C46.8594 57.1277 47.0784 56.9298 47.1438 56.7529Z"
    fill="#9B9B9B"
  ></path>
  <path
    d="M38.6065 0.903778C38.6065 0.903778 46.445 8.82672 31.172 21.01C18.9246 30.783 28.3792 36.3554 31.1669 42.722C24.0179 36.2046 18.7715 30.4673 22.2912 25.1275C27.4573 17.2892 41.7691 13.4889 38.6065 0.903778Z"
    fill="#6A6A6A"
  ></path>
  <path
    d="M23.935 76.8905C37.5207 77.7693 58.3831 76.403 58.8772 69.9076C58.8772 69.9076 57.9274 72.3699 47.6493 74.3254C36.0536 76.5304 21.752 76.2729 13.2695 74.8598C13.2697 74.8596 15.006 76.312 23.935 76.8905Z"
    fill="#9B9B9B"
  ></path>
  <path
    d="M21.7077 101.71C20.4261 102.833 19.0725 103.464 17.8578 103.464C16.124 103.464 15.1872 102.413 15.1872 100.728C15.1872 98.9056 16.1909 97.573 20.2175 97.573H21.7075V101.71H21.7077ZM25.2441 105.741V93.2618C25.2441 90.0737 23.4446 87.9701 19.1059 87.9701C16.573 87.9701 14.3542 88.6021 12.5508 89.4081L13.0714 91.6171C14.4912 91.0905 16.3292 90.6003 18.1331 90.6003C20.6325 90.6003 21.7077 91.6171 21.7077 93.7193V95.2966H20.4603C14.3877 95.2966 11.6484 97.6784 11.6484 101.254C11.6484 104.339 13.4536 106.093 16.8525 106.093C19.0374 106.093 20.6683 105.181 22.1929 103.847L22.4696 105.742H25.2441V105.741Z"
    fill="#6A6A6A"
  ></path>
  <path
    d="M37.0471 105.741H32.6363L27.3281 88.2861H31.1799L34.4737 99.0108L35.2059 102.236C36.8722 97.5728 38.0507 92.8416 38.6402 88.2861H42.387C41.3831 94.0341 39.5767 100.343 37.0471 105.741Z"
    fill="#6A6A6A"
  ></path>
  <path
    d="M53.9682 101.71C52.6842 102.833 51.3281 103.464 50.1134 103.464C48.3826 103.464 47.4434 102.413 47.4434 100.728C47.4434 98.9056 48.4495 97.573 52.4758 97.573H53.9682V101.71ZM57.5042 105.741V93.2618C57.5042 90.0737 55.7002 87.9701 51.3666 87.9701C48.8318 87.9701 46.6122 88.6021 44.8097 89.4081L45.3294 91.6171C46.7499 91.0905 48.5913 90.6003 50.3938 90.6003C52.8914 90.6003 53.9682 91.6171 53.9682 93.7193V95.2966H52.7187C46.6443 95.2966 43.9062 97.6784 43.9062 101.254C43.9062 104.339 45.71 106.093 49.1083 106.093C51.2944 106.093 52.9247 105.181 54.452 103.847L54.7297 105.742H57.5042V105.741Z"
    fill="#6A6A6A"
  ></path>
  <path
    d="M7.77444 108.706C6.76631 110.193 5.13802 111.37 3.3554 112.035L1.60938 109.959C2.96622 109.256 4.12989 108.12 4.67056 107.061C5.13822 106.12 5.3318 104.907 5.3318 102.006V82.0783H9.08899V101.733C9.08879 105.611 8.78196 107.178 7.77444 108.706Z"
    fill="#6A6A6A"
  ></path>
</svg>

<svg width="62" height="113" viewBox="0 0 62 113" fill="none" xmlns="http://www.w3.org/2000/svg"><path d="M58.25 88.54h-.414v-.235h1.115v.235h-.411v1.168h-.29V88.54Zm2.225.06h-.006l-.41 1.108h-.189l-.408-1.107h-.005v1.107h-.273v-1.402h.402l.378.993.377-.993h.4v1.402h-.266v-1.107Z" fill="#6A6A6A"/><path d="M21.162 59.854s-2.883 1.694 2.051 2.267c5.978.69 9.033.59 15.621-.67 0 0 1.732 1.098 4.151 2.048-14.768 6.396-33.423-.37-21.823-3.645ZM19.353 51.508s-3.233 2.419 1.705 2.935c6.386.666 11.429.72 20.155-.978 0 0 1.207 1.236 3.105 1.913-17.855 5.275-37.743.416-24.965-3.87Z" fill="#9B9B9B"/><path d="M34.568 37.351c3.639 4.234-.956 8.043-.956 8.043s9.24-4.82 4.996-10.855c-3.963-5.628-7.002-8.425 9.451-18.066 0 0-25.826 6.517-13.49 20.878Z" fill="#6A6A6A"/><path d="M54.102 66.027s2.133 1.776-2.35 3.15c-8.524 2.61-35.479 3.397-42.967.104-2.692-1.183 2.356-2.825 3.944-3.17 1.656-.363 2.602-.295 2.602-.295-2.993-2.13-19.348 4.184-8.307 5.992 30.11 4.934 54.888-2.222 47.078-5.781ZM22.544 42.861s-13.711 3.29-4.856 4.486c3.74.506 11.193.391 18.136-.197 5.674-.483 11.372-1.512 11.372-1.512s-2 .866-3.448 1.865c-13.924 3.7-40.82 1.979-33.077-1.806 6.548-3.199 11.873-2.836 11.873-2.836ZM47.144 56.753c14.154-7.432 7.61-14.573 3.042-13.611-1.12.235-1.619.44-1.619.44s.416-.658 1.21-.943c9.036-3.21 15.985 9.467-2.918 14.488 0 0 .22-.197.285-.374Z" fill="#9B9B9B"/><path d="M38.606.904s7.839 7.923-7.434 20.106c-12.247 9.773-2.793 15.345-.005 21.712-7.15-6.517-12.396-12.255-8.876-17.595C27.457 17.29 41.77 13.49 38.606.905Z" fill="#6A6A6A"/><path d="M23.935 76.89c13.586.88 34.448-.487 34.942-6.982 0 0-.95 2.462-11.228 4.417-11.595 2.205-25.897 1.948-34.38.535 0 0 1.737 1.452 10.666 2.03Z" fill="#9B9B9B"/><path d="M21.708 101.71c-1.282 1.123-2.635 1.754-3.85 1.754-1.734 0-2.67-1.051-2.67-2.736 0-1.822 1.003-3.155 5.03-3.155h1.49v4.137Zm3.536 4.031v-12.48c0-3.187-1.8-5.29-6.138-5.29-2.533 0-4.752.631-6.555 1.437l.52 2.21c1.42-.527 3.258-1.018 5.062-1.018 2.5 0 3.575 1.017 3.575 3.12v1.577H20.46c-6.072 0-8.812 2.381-8.812 5.957 0 3.085 1.806 4.839 5.204 4.839 2.185 0 3.816-.912 5.34-2.246l.278 1.895h2.774v-.001ZM37.047 105.741h-4.41l-5.309-17.455h3.852l3.294 10.725.732 3.225c1.666-4.663 2.845-9.394 3.434-13.95h3.747c-1.004 5.748-2.81 12.057-5.34 17.455ZM53.968 101.71c-1.284 1.123-2.64 1.754-3.855 1.754-1.73 0-2.67-1.051-2.67-2.736 0-1.822 1.007-3.155 5.033-3.155h1.492v4.137Zm3.536 4.031v-12.48c0-3.187-1.804-5.29-6.137-5.29-2.535 0-4.755.631-6.557 1.437l.52 2.21c1.42-.527 3.261-1.018 5.064-1.018 2.497 0 3.574 1.017 3.574 3.12v1.577h-1.25c-6.074 0-8.812 2.381-8.812 5.957 0 3.085 1.804 4.839 5.202 4.839 2.186 0 3.817-.912 5.344-2.246l.278 1.895h2.774v-.001ZM7.774 108.706c-1.008 1.487-2.636 2.664-4.419 3.329l-1.746-2.076c1.357-.703 2.52-1.839 3.062-2.898.467-.941.66-2.154.66-5.055V82.078H9.09v19.655c0 3.878-.307 5.445-1.315 6.973Z" fill="#6A6A6A"/></svg>
